X:1
T:Title
%%score ( 1 2 ) ( 3 4 )
L:1/8
Q:1/4=95
M:4/4
K:Bb
V:1 treble nm="Grand Piano, Soprano"
V:2 treble 
V:3 bass nm="Choir Pad, Will You Let Them Die?"
V:4 bass 
V:1
 [DF][DF][DB][DB] [DB][Ec][Fd][Fd] | [Fd][Fc][GB][GB] [GB][Gc] [Fd]2 | %2
w: By~Glen~Copeland * * * * * * *||
 [DF][DF][DB][DB] [FB][Fc][Fd][Fd] | [Fc][=EB] [Fc]6 | [EF][EF][DB][DB] [DB][Ec][Fd][Fd] | %5
w: |||
 [Fd][Fc][GB][GB] [GB][Gc] [Fd]2 | [DF][DF][DB][DB] [FB][Gc][Fd][Fd] | [Ec][Ec] [DB]6 | z4 z2 d2- | %9
w: ||||
 d2 z2 z2 B2- | B2 z2 z2 d2- | d2 z2 z4 | [EF][EF][DB][DB] [DB][Ec][Fd][Fd] | %13
w: ||||
 [Fd][Fc][GB][GB] [GB][Gc] [Fd]2 | [DF][DF][DB][DB] [FB][Gc][Fd][Fd] | z2 B6- | B4 z4 |] %17
w: ||||
V:2
 x8 | x8 | x8 | x8 | x8 | x8 | x8 | x8 | z2 [DF][DF] [DB][Ec]FG | FF[Fd][Ge] [Fd][Ec]DD | %10
 E2 FF [FB][Fc]FG | FF[Ge][Fd] [Fc][=EB] [Fc]2 | x8 | x8 | x8 | [Ec][Ec]DE FG F2- | F4 z4 |] %17
V:3
 [B,,B,][B,,B,][B,,F,][B,,F,] [B,,F,][B,,F,][B,,B,][B,,B,] | %1
 [B,,B,][D,B,][E,B,][E,B,] [E,B,][E,B,] [B,,B,]2 | [B,,B,][B,,B,][B,,F,][B,,F,] [D,B,][F,A,]B,B, | %3
 [A,C][G,C] [F,A,]6 | [F,A,][F,A,][B,,B,][B,,F,] [B,,F,][B,,F,][B,,B,][B,,B,] | %5
 [B,,B,][D,B,][E,B,][E,B,] [E,B,][E,B,] [B,,B,]2 | %6
 [B,,B,][B,,B,][B,,F,][B,,F,] [D,B,][E,B,][F,B,][F,B,] | [F,A,][F,A,] [B,,B,]6 | %8
 z2 [B,,B,][B,,B,] [B,,F,][B,,F,][B,,B,][B,,B,] | [B,,B,][B,,B,]B,B, B,[F,A,][G,B,][G,B,] | %10
 [E,G,]2 [D,B,][D,B,] [D,B,][C,A,][B,,B,][B,,B,] | [B,,B,][B,,B,]B,B, [A,C][G,C] [F,A,]2 | %12
 [F,A,][F,A,][B,,B,][B,,F,] [B,,F,][B,,F,][B,,B,][B,,B,] | %13
 [B,,B,][D,B,][E,B,][E,B,] [E,B,][E,B,] [B,,B,]2 | %14
 [B,,B,][B,,B,][B,,F,][B,,F,] [D,B,][E,B,][F,B,][F,B,] | [F,A,][F,A,]B,C DE D2- | D4 z4 |] %17
V:4
 x8 | x8 | x8 | x8 | x8 | x8 | x8 | x8 | x8 | x8 | x8 | x8 | x8 | x8 | x8 | z2 B,,6- | B,,4 z4 |] %17

